X: 1
T: Breaking And Brendaning
C: Kathleen Fownes
N: This tune was written by Kathleen Fownes for Brendan Hearn!
S: handout at RJ practice 2021-11-23
S: https://thesession.org/tunes/19411 2021-11-24
R: reel
Z: 2021 John Chambers <jc:trillian.mit.edu>
M: C|
L: 1/8
K: A
|::: agfe fc c/c/c | ecAB- BAGA |\
[1,3 FAcA BAFG | ABce- eceg :|\
[2,4 FAcA BAFA | EAcB  A4   :|
|::: d3c  BAFA | BABc  defg  |\
[1,3 afge fdec | dBcA  BAFA :|\
[2,4 agfe fcag | fece  f4   :|
